svgs/solid/window-frame-open.svg

<svg xmlns="http://www.w3.org/2000/svg" viewBox="0 0 512 512"><!--! Font Awesome Pro 6.0.0-alpha3 by @fontawesome - https://fontawesome.com License - https://fontawesome.com/license (Commercial License) --><path d="M480 32c0-17.62-14.38-32-32-32H64C46.38 0 32 14.38 32 32v256h448V32zM240 224H96v-160h144V224zM416 224h-144v-160H416V224zM496 448H480v-128h-64v128H96v-128H32v128H16C7.125 448 0 455.1 0 464v32C0 504.9 7.125 512 16 512h480c8.875 0 16-7.125 16-16v-32C512 455.1 504.9 448 496 448z"/></svg>

<svg xmlns="http://www.w3.org/2000/svg" viewBox="0 0 512 512"><!-- Font Awesome Pro 5.15.3 by @fontawesome - https://fontawesome.com License - https://fontawesome.com/license (Commercial License) --><path d="M480,32A32,32,0,0,0,448,0H64A32,32,0,0,0,32,32V288H480ZM240,224H96V64H240Zm176,0H272V64H416Zm80,224H480V320H416V448H96V320H32V448H16A16,16,0,0,0,0,464v32a16,16,0,0,0,16,16H496a16,16,0,0,0,16-16V464A16,16,0,0,0,496,448Z"/></svg>
